img/play.svg

<svg width="100" height="100" viewBox="0 0 100 100" fill="none" xmlns="http://www.w3.org/2000/svg">
<path d="M97.9129 25.904C97.3437 23.7839 96.2276 21.8505 94.6763 20.2973C93.1251 18.744 91.193 17.6255 89.0737 17.0536C81.2723 14.9554 50 14.9554 50 14.9554C50 14.9554 18.7277 14.9554 10.9263 17.0424C8.80603 17.6125 6.87304 18.7304 5.32149 20.2839C3.76994 21.8374 2.65446 23.7718 2.08705 25.8929C-4.25747e-07 33.7054 0 50 0 50C0 50 -4.25747e-07 66.2946 2.08705 74.096C3.23661 78.404 6.62946 81.7969 10.9263 82.9464C18.7277 85.0446 50 85.0446 50 85.0446C50 85.0446 81.2723 85.0446 89.0737 82.9464C93.3817 81.7969 96.7634 78.404 97.9129 74.096C100 66.2946 100 50 100 50C100 50 100 33.7054 97.9129 25.904ZM40.067 64.9554V35.0446L65.9598 49.8884L40.067 64.9554Z" fill="url(#paint0_linear_202_2)"/>
<path d="M66 50L40 35V65L66 50Z" fill="#D9D9D9"/>
<defs>
<linearGradient id="paint0_linear_202_2" x1="50" y1="14.9554" x2="50" y2="85.0446" gradientUnits="userSpaceOnUse">
<stop stop-color="#E22C29"/>
<stop offset="1" stop-color="#BF2327"/>
</linearGradient>
</defs>
</svg>

<svg width="100" height="100" fill="none" xmlns="http://www.w3.org/2000/svg"><path d="M97.913 25.904a12.532 12.532 0 00-8.84-8.85C81.274 14.955 50 14.955 50 14.955s-31.272 0-39.074 2.087a12.514 12.514 0 00-8.839 8.85C0 33.706 0 50 0 50s0 16.295 2.087 24.096a12.533 12.533 0 008.84 8.85C18.726 85.045 50 85.045 50 85.045s31.272 0 39.074-2.099a12.513 12.513 0 008.839-8.85C100 66.295 100 50 100 50s0-16.295-2.087-24.096zM40.067 64.955v-29.91L65.96 49.888 40.067 64.955z" fill="url(#paint0_linear_202_2)"/><path d="M66 50L40 35v30l26-15z" fill="#D9D9D9"/><defs><linearGradient id="paint0_linear_202_2" x1="50" y1="14.955" x2="50" y2="85.045" gradientUnits="userSpaceOnUse"><stop stop-color="#E22C29"/><stop offset="1" stop-color="#BF2327"/></linearGradient></defs></svg>
